X: 25716
T: Mary Cotter
R: jig
M: 6/8
K: Amajor
|:aec ABA|GAB d2 B|cBc Ace|dcd Bce|
aec ABA|GAB d2 B|cBc BAB|cAA Ace:|
{g}f2 f {g}gec|BcB c2 B|ABc ece|{g}fec e2 e|
{g}f2 f {g}gec|BcB c2 B|A2 c BAB|cAA Ace||
{g}f2 f {g}gec|BcB c2 B|ABc ece|{g}fec e2 e|
f/g/af {g}fec|aec def|edc BAB|cAA A3||

